img/case-studies/design-system.svg

<svg fill="none" height="536" viewBox="0 0 536 536" width="536" xmlns="http://www.w3.org/2000/svg"><circle cx="106.276" cy="269.276" fill="#92918f" r="35.2761"/><circle cx="198.724" cy="269.276" fill="#cdcdcc" r="35.2761"/><circle cx="106.276" cy="361.724" fill="#f6f6f5" r="35.2761"/><circle cx="198.724" cy="361.724" fill="#444441" r="35.2761"/><rect fill="#92918f" height="187" rx="16" width="187" x="282" y="129"/><path d="m362.558 255.534-5.473-19.207h-22.924l-5.473 19.207h-11.772l21.066-72.076h15.798l21.066 72.076zm-16.522-60.408h-.826l-8.881 31.598h18.587zm81.536 60.408c-3.236 0-5.68-.826-7.332-2.479-1.583-1.652-2.547-3.82-2.891-6.505h-.516c-1.033 3.235-2.926 5.748-5.68 7.538-2.685 1.79-6.127 2.685-10.326 2.685-5.438 0-9.775-1.411-13.011-4.234-3.235-2.891-4.853-6.85-4.853-11.875 0-5.163 1.893-9.087 5.679-11.772 3.855-2.753 9.741-4.13 17.658-4.13h10.223v-4.131c0-7.228-3.821-10.842-11.462-10.842-3.442 0-6.23.688-8.364 2.065-2.134 1.308-3.924 3.064-5.37 5.267l-6.712-5.473c1.515-2.892 4.062-5.37 7.641-7.435 3.58-2.134 8.193-3.201 13.837-3.201 6.747 0 12.048 1.618 15.903 4.853 3.855 3.236 5.782 7.917 5.782 14.044v26.744h6.712v8.881zm-23.544-7.022c3.649 0 6.643-.826 8.984-2.478s3.511-3.787 3.511-6.403v-7.744h-10.016c-8.124 0-12.185 2.444-12.185 7.331v2.066c0 2.409.86 4.233 2.581 5.473 1.721 1.17 4.096 1.755 7.125 1.755z" fill="#f6f6f5"/><rect fill="#f6f6f5" height="59" rx="16" width="173" x="66" y="129"/><g stroke-linecap="round" stroke-width="7"><path d="m116.5 159.5h73" stroke="#1b2020"/><path d="m284.5 389.5h140" stroke="#f6f6f5"/><path d="m284.5 362.5h177" stroke="#f6f6f5"/></g></svg>

<svg width="536" height="536" viewBox="0 0 536 536" fill="none" xmlns="http://www.w3.org/2000/svg">
<circle cx="106.276" cy="269.276" r="35.2761" fill="#92918F"/>
<circle cx="198.724" cy="269.276" r="35.2761" fill="#CDCDCC"/>
<circle cx="106.276" cy="361.724" r="35.2761" fill="#F6F6F5"/>
<circle cx="198.724" cy="361.724" r="35.2761" fill="#444441"/>
<rect x="282" y="129" width="187" height="187" rx="16" fill="#92918F"/>
<path d="M362.558 255.534L357.085 236.327H334.161L328.688 255.534H316.916L337.982 183.458H353.78L374.846 255.534H362.558ZM346.036 195.126H345.21L336.329 226.724H354.916L346.036 195.126ZM427.572 255.534C424.336 255.534 421.892 254.708 420.24 253.055C418.657 251.403 417.693 249.235 417.349 246.55H416.833C415.8 249.785 413.907 252.298 411.153 254.088C408.468 255.878 405.026 256.773 400.827 256.773C395.389 256.773 391.052 255.362 387.816 252.539C384.581 249.648 382.963 245.689 382.963 240.664C382.963 235.501 384.856 231.577 388.642 228.892C392.497 226.139 398.383 224.762 406.3 224.762H416.523V220.631C416.523 213.403 412.702 209.789 405.061 209.789C401.619 209.789 398.831 210.477 396.697 211.854C394.563 213.162 392.773 214.918 391.327 217.121L384.615 211.648C386.13 208.756 388.677 206.278 392.256 204.213C395.836 202.079 400.449 201.012 406.093 201.012C412.84 201.012 418.141 202.63 421.996 205.865C425.851 209.101 427.778 213.782 427.778 219.909V246.653H434.49V255.534H427.572ZM404.028 248.512C407.677 248.512 410.671 247.686 413.012 246.034C415.353 244.382 416.523 242.247 416.523 239.631V231.887H406.507C398.383 231.887 394.322 234.331 394.322 239.218V241.284C394.322 243.693 395.182 245.517 396.903 246.757C398.624 247.927 400.999 248.512 404.028 248.512Z" fill="#F6F6F5"/>
<rect x="66" y="129" width="173" height="59" rx="16" fill="#F6F6F5"/>
<line x1="116.5" y1="159.5" x2="189.5" y2="159.5" stroke="#1B2020" stroke-width="7" stroke-linecap="round"/>
<line x1="284.5" y1="389.5" x2="424.5" y2="389.5" stroke="#F6F6F5" stroke-width="7" stroke-linecap="round"/>
<line x1="284.5" y1="362.5" x2="461.5" y2="362.5" stroke="#F6F6F5" stroke-width="7" stroke-linecap="round"/>
</svg>
